app/dist/common/images/lojas-marisaon-nm.svg

<svg height="18" width="18" xmlns="http://www.w3.org/2000/svg"><path d="m0 0h18v18h-18z" fill="#f09"/><path d="m13.2 5.73a3.05 3.05 0 0 0 -2.07-.73c-.8 0-1.56.3-2.1.81l-.03.05-.04-.05a3.03 3.03 0 0 0 -2.1-.81c-.8 0-1.54.26-2.05.73-.5.44-.81.9-.81 1.84v5.43h2v-4.5c0-1 .5-1.5 1-1.5s1 .5 1 1.5v4.5h2v-4.5c0-1 .5-1.5 1-1.5s1 .5 1 1.5v4.5h2v-5.43c0-.93-.3-1.4-.8-1.84z" fill="#fff"/></svg>

<!-- by TradingView --><svg xmlns="http://www.w3.org/2000/svg" width="18" height="18"><path fill="#F09" d="M0 0h18v18H0z"/><path d="M13.2 5.73A3.05 3.05 0 0011.13 5c-.8 0-1.56.3-2.1.81L9 5.86l-.04-.05A3.03 3.03 0 006.86 5c-.8 0-1.54.26-2.05.73-.5.44-.81.9-.81 1.84V13h2V8.5C6 7.5 6.5 7 7 7s1 .5 1 1.5V13h2V8.5c0-1 .5-1.5 1-1.5s1 .5 1 1.5V13h2V7.57c0-.93-.3-1.4-.8-1.84z" fill="#fff"/></svg>
